_includes/icons/color-google-sheets.svg

<svg fill="#666" height="50" viewBox="0 0 48 48" width="50" xmlns="http://www.w3.org/2000/svg"><path d="m37 45h-26c-1.65625 0-3-1.34375-3-3v-36c0-1.65625 1.34375-3 3-3h19l10 10v29c0 1.65625-1.34375 3-3 3z" fill="#43a047"/><path d="m40 13h-10v-10z" fill="#c8e6c9"/><path d="m30 13 10 10v-10z" fill="#2e7d32"/><path d="m31 23h-16v14h18v-14zm-14 2h4v2h-4zm0 4h4v2h-4zm0 4h4v2h-4zm14 2h-8v-2h8zm0-4h-8v-2h8zm0-4h-8v-2h8z" fill="#e8f5e9"/></svg>

<svg xmlns="http://www.w3.org/2000/svg" viewBox="0 0 48 48" width="50" height="50" fill="#666"><path d="M 37 45 L 11 45 C 9.34375 45 8 43.65625 8 42 L 8 6 C 8 4.34375 9.34375 3 11 3 L 30 3 L 40 13 L 40 42 C 40 43.65625 38.65625 45 37 45 Z" fill="#43a047"/><path d="M 40 13 L 30 13 L 30 3 Z" fill="#c8e6c9"/><path d="M 30 13 L 40 23 L 40 13 Z" fill="#2e7d32"/><path d="M 31 23 L 15 23 L 15 37 L 33 37 L 33 23 Z M 17 25 L 21 25 L 21 27 L 17 27 Z M 17 29 L 21 29 L 21 31 L 17 31 Z M 17 33 L 21 33 L 21 35 L 17 35 Z M 31 35 L 23 35 L 23 33 L 31 33 Z M 31 31 L 23 31 L 23 29 L 31 29 Z M 31 27 L 23 27 L 23 25 L 31 25 Z" fill="#e8f5e9"/></svg>
